img/search/home.svg

<svg width="20" height="20" viewBox="0 0 20 20" fill="none" xmlns="http://www.w3.org/2000/svg">
<path fill-rule="evenodd" clip-rule="evenodd" d="M9.38606 0.877396C9.74717 0.596532 10.2528 0.596532 10.6139 0.877396L18.1139 6.71073C18.3575 6.90019 18.5 7.19149 18.5 7.50008V16.6667C18.5 17.374 18.219 18.0523 17.719 18.5524C17.2189 19.0525 16.5406 19.3334 15.8333 19.3334H4.16667C3.45942 19.3334 2.78115 19.0525 2.28105 18.5524C1.78095 18.0523 1.5 17.374 1.5 16.6667V7.50008C1.5 7.19149 1.64247 6.90019 1.88606 6.71073L9.38606 0.877396ZM3.5 7.98917V16.6667C3.5 16.8436 3.57024 17.0131 3.69526 17.1382C3.82029 17.2632 3.98986 17.3334 4.16667 17.3334H15.8333C16.0101 17.3334 16.1797 17.2632 16.3047 17.1382C16.4298 17.0131 16.5 16.8436 16.5 16.6667V7.98917L10 2.93361L3.5 7.98917Z" fill="#61594D" fill-opacity="0.6"/>
<path fill-rule="evenodd" clip-rule="evenodd" d="M6.5 10C6.5 9.44772 6.94772 9 7.5 9H12.5C13.0523 9 13.5 9.44772 13.5 10V18.3333C13.5 18.8856 13.0523 19.3333 12.5 19.3333C11.9477 19.3333 11.5 18.8856 11.5 18.3333V11H8.5V18.3333C8.5 18.8856 8.05228 19.3333 7.5 19.3333C6.94772 19.3333 6.5 18.8856 6.5 18.3333V10Z" fill="#61594D" fill-opacity="0.6"/>
</svg>

<svg width="20" height="20" fill="none" xmlns="http://www.w3.org/2000/svg"><path fill-rule="evenodd" clip-rule="evenodd" d="M9.386.877a1 1 0 011.228 0l7.5 5.834a1 1 0 01.386.79v9.166a2.667 2.667 0 01-2.667 2.666H4.167A2.667 2.667 0 011.5 16.667V7.5a1 1 0 01.386-.79l7.5-5.833zM3.5 7.99v8.678a.667.667 0 00.667.666h11.666a.667.667 0 00.667-.666V7.989L10 2.934 3.5 7.989z" fill="#61594D" fill-opacity=".6"/><path fill-rule="evenodd" clip-rule="evenodd" d="M6.5 10a1 1 0 011-1h5a1 1 0 011 1v8.333a1 1 0 11-2 0V11h-3v7.333a1 1 0 11-2 0V10z" fill="#61594D" fill-opacity=".6"/></svg>
